!!!COM: Johannes Brahms
!!!CNT: Deutscher
!!!TXO: Deutsche
!!!OTL: Juchhe!
!!!OPS: Op. 6
!!!ONM: No. 4
!!!LYR: Reinick
!!!ONB: Original key: Eb Major
!!!ENC: Ayako Kataoka        
!!!EED: Leigh VanHandel
!!!YOR: C.F. Peters, Brahms Lieder fu2r eine Singstimme mit Klavierbegleitung, Band III, ausgabe fu2r tiefere Stimme
!!!ODT: 1852/
!!NB: Vocal melody and text only encoded.
**kern	**silbe
*clefG2	*
*k[]	*
*M6/8	*
*MM[con moto]	*
=4	=4
4r	.
8r	.
4r	.
{8e	{Wie
=5	=5
4.g	ist
4f#	doch
8g	die
=6	=6
4.a	Er-
4f#	-de
8g	so
=7	=7
4ee	scho2n,
8cc	so
4g}	scho2n!}
8r	.
=9	=9
4r	.
8r	.
4r	.
{8g	{das
=10	=10
4.g	wis-
4f	-sen
8e	die
=11	=11
4f	Vo2-
8d	-ge-
4B}	-lein,}
8r	.
=12	=12
4r	.
8r	.
4r	.
{8f	{das
=13	=13
4.f	wis-
4e	-sen
8d	die
=14	=14
4g	Vo2-
8e	-ge-
4c}	-lein:}
8r	.
=16	=16
4r	.
8r	.
4r	.
{8f	{sie
=17	=17
8f	he-
8e	-ben
8d	ihr
(8d	lei-
8e)	-cht
8f	Ge-
=18	=18
8e	-fie-
8d}	-der,}
8r	.
4r	.
{8f	{sie
=19	=19
8f	he-
8e	-ben
8d	ihr
(8d	leicht
8e)	|
8f	Ge-
=20	=20
8e	-fie-
8d}	-der}
8r	.
4r	.
{8g	{und
=21	=21
8g	sin-
8f	-gen
8e	so
8e	fr2oh-
8f	-li-
8g	-che
=22	=22
8f	Lie-
8e}	-der}
8r	.
4r	.
{8a-	{und
=23	=23
8a-	sin-
8f}	-gen,}
8r	.
4r	.
{8a-	{und
=24	=24
8a-	sin-
8f}	-gen}
8r	.
4r	.
8r	.
=25	=25
4r	.
8r	.
8r	.
{8b	{in
8b	den
=26	=26
4ff	blau-
8ee	-en
(8dd	Him-
8cc	-mel
8a)	hin-
=27	=27
(8g	-ein,
8f#	in
8g)	den
(8a	Him-
8f#	-mel
8d)	hin
=28	=28
4dd}	-ein,}
8r	.
4r	.
8r	.
=29	=29
4r	.
8r	.
8r	.
{8g	{in
8g	den
=30	=30
([4.dd	blau-
8dd]	|
8b)	|
8g	en
=31	=31
4.d	Him-
4e	-mel
8f#	hin-
=32	=32
4g}	-ein.}
8r	.
4r	.
8r	.
=38	=38
4r	.
8r	.
4r	.
{8g	{Wie
=39	=39
4.g	ist
4f#	doch
8g	die
=40	=40
4.a	Er-
4f#	-de
8g	so
=41	=41
4ee	scho2n,
8cc	so
4g}	scho2n!}
8r	.
=43	=43
4r	.
8r	.
4r	.
{8g	{das
=44	=44
4.g	wis-
4f	-sen
8e	die
=45	=45
4f	Flu2ss
8d	und
4B}	Seen,}
8r	.
=46	=46
4r	.
8r	.
4r	.
{8f	{das
=47	=47
4.f	wis-
4e	-sen
8d	die
=48	=48
4g	Flu2ss
8e	und
4c}	Seen:}
8r	.
=50	=50
4r	.
8r	.
4r	.
{8f	{sie
=51	=51
8f	ma-
8e	-len
8d	im
(8d	kla-
8e)	|
8f	-ren
=52	=52
8e	Spie-
8d}	-gel}
8r	.
4r	.
{8f	{die
=53	=53
8f	Ga2r-
8e	-ten
8d	und
(8d	Stadt
8e)	|
8f	und
=54	=54
8e	Hu2-
8d}	-gel,}
8r	.
4r	.
{8g	{sie
=55	=55
8g	ma-
8f	-len
8e	im
(8e	kla-
8f)	|
8g	-ren
=56	=56
8f	Spie-
8e}	-gel}
8r	.
4r	.
{8a-	{die
=57	=57
8a-	Ga2r-
8f	-ten
8r	.
4r	.
8a-	und
=58	=58
8a-	Hu2-
8f}	-gel,}
8r	.
4r	.
8r	.
=59	=59
4r	.
8r	.
8r	.
{8b	{und
8b	die
=60	=60
(8ff	Wol-
8ee)}	-ken,}
{8dd	{die
(8dd	dru2-
8cc)	|
8a	-ber
=61	=61
(8g	gehn,
8f#)}	|}
{8g	{die
(8a	dru2-
8f#)	|
8d	-ber
=62	=62
4dd}	gehn,}
8r	.
4r	.
8r	.
=63	=63
4r	.
8r	.
8r	.
{8g	{und
8g	die
=64	=64
[4.dd	Wol-
8dd]	|
8b	-ken,
8g	die
=65	=65
(4.d	dru2-
4e)	|
8f#	-ber
=66	=66
4g}	gehn.}
8r	.
4r	.
8r	.
=72	=72
4r	.
8r	.
4r	.
{8g	{Und
=73	=73
4.g	Sa2n-
4f#	-ger
8g	und
=74	=74
(4.a	Ma-
4f#)	|
8g	-ler
=75	=75
4ee	wis-
8cc	-sen
4g}	es,}
8r	.
=77	=77
4r	.
8r	.
8r	.
{8a	{und
8g	es
=78	=78
4.g	wis-
4f	-sen's
8e	viel
=79	=79
4f	and-
8d	-re
4B}	Leut!}
8r	.
=80	=80
4r	.
8r	.
8r	.
{8f	{Und
8f	es
=81	=81
4.f	wis-
4e	-sen's
8d	viel
=82	=82
4g	and-
8e	-re
4c}	-Leut!}
8r	.
=84	=84
4r	.
8r	.
4r	.
{8f	{Und
=85	=85
(8f	wer's
8e)	|
8d	nicht
(8d	malt,
8e)	|
8f	der
=86	=86
8e	singt
8d}	es,}
8r	.
4r	.
{8f	{und
=87	=87
(8f	wer's
8e-)	|
8d	nicht
(8d	singt,
8e-)	|
8f	dem
=88	=88
8e-	klingt
8d}	es}
8r	.
4r	.
{8g-	{im
=89	=89
8g-	Her-
8f	-zen
8e-	vor
(8e-	lau-
8f)	|
8g-	-ter
=90	=90
(8f	Freud;
8e-)}	|}
8r	.
4r	.
8r	.
=91	=91
4r	.
8r	.
4r	.
{8ee-	{im
=92	=92
4.een	Her-
4ee	-zen
8dd	vor
=93	=93
(4dd	lau-
8cc)	|
(4cc	-ter
8b)	|
=94	=94
(4b	Freud!
8a)}	|}
4r	.
{8g	{vor
=95	=95
(4g	lau-
8f)	|
(4e	-ter
8d)	|
=96	=96
(4d	Freud!
8c)}	|}
4r	.
{8d	{dem
=97	=97
4d	klingt
8c	es
4r	.
8d	im
=98	=98
4d	Her-
8c	-zen
4r	.
8c	vor
=99	=99
(4.g	lau-
4.f#	|
=100	=100
4.fn)	|
4.e	-ter,
=101	=101
[2.d	lau-
=102	=102
4.d]	|
4.e	-ter
=103	=103
(4.c	Freud!
4c)}	|}
*-	*-
